X: 94
T: POLKA: Nell Fee's (Gmaj)
T: John Brosnan's No. 2
C: C: Trad.; S: Timmy O'Connor
C: Set Leaders: Anton, Sophie, Tania
Z: Anton Zille ed.; slainte at The Session
N: https://thesession.org/members/26966/sets/92004
R: Polka
M: 2/4
L: 1/8
Q: 1/4=140
K: Gmaj
|:G2 Ge|dB B>e|dB GA|BA AB|
G2 Ge|dB B>e|dB AB|1GD EF:|2 G2 Bd||
|:ga/g/ fg|ed Bd|ga fg|e2 ef|
g2 fg|ed B>e|dB AB|GA Bd:||
|:g2 a2|b3 a|ge ef|g2 gd|
eg/e/ dB|eg/e/ dB|dB AB|1 GA Bd:|2 GD EF||

